X:21
T:The Braes of Balwhither
S:Petrie's Third Collection of Strathspey Reels and Country Dances &c.
Z:Steve Wyrick <sjwyrick'at'gmail'dot'com>, 7/30/05
N:Petrie's Third Collection, page 9
L:1/8
M:C
R:Strathspey
K:F
"^Very Slow"
c|d2F>c \{B\}A2 A>B|dF/d/ c>F .AG-GA/c/|dF/d/ cF/c/ \{B\}A2 A?c|d(f/e/) (g/f/)(e/d/) cAA:|c|d>ef>d c<Aa>g|
f(d/f/) (d/c/)(B/A/) B>GG>c|d(f/e/) (g/f/)(e/d/) c<Aa>g|(a/g/f/e/) f>d c<AA>c|d>ef>d|c<Aa>g|f(d/f/) (d/c/)(B/A/) B<GG>A|
F<DC>D F>GA>c|(d/f/e/f/) (g/f/e/d/) cAA|:A/B/|c<Fd>F A2 AB|(c/f/e/f/) (d/c/B/A/) B<GG>c|d<Fc>F A2Ac|
(d/f/e/f/) (g/f/e/d/) cAA:|c|d>ef>d c<ATa>g|f(d/f/) (d/c/)(B/A/)B>GG>c|(d/f/e/f/) (g/f/e/d/) (d/c/)(B/A/) (a/g/)(a/g/)|(a/g/f/e/) f>d c<AA>c|
(d/c/d/e/) (f/e/f/d/) (d/c/B/A/) Ta>g|f(d/f/) (d/c/)(B/A/) B<GG>A|F>DC>D F>GA>c|(d/f/e/f/) (g/f/e/d/) cAA|]
